local/share/icons/dracula-icons-main/scalable/apps/distributor-logo-kali.svg

<?xml version="1.0" encoding="UTF-8"?>
<svg xmlns="http://www.w3.org/2000/svg" xmlns:xlink="http://www.w3.org/1999/xlink" width="64" height="64" viewBox="0 0 64 64">
<path fill-rule="nonzero" fill="rgb(15.686275%, 51.372549%, 71.372549%)" fill-opacity="1" d="M 8.464844 1.324219 C 12.414062 1.324219 15.609375 4.519531 15.609375 8.464844 C 15.609375 12.414062 12.414062 15.609375 8.464844 15.609375 C 4.519531 15.609375 1.324219 12.414062 1.324219 8.464844 C 1.324219 4.519531 4.519531 1.324219 8.464844 1.324219 Z M 8.464844 1.324219 "/>
<path fill-rule="nonzero" fill="rgb(100%, 100%, 100%)" fill-opacity="1" d="M 7.816406 3.761719 C 8.042969 4.359375 8.308594 5.039062 8.703125 5.558594 C 8.269531 5.34375 7.78125 5.199219 7.402344 4.890625 C 7.449219 5.011719 7.433594 5.140625 7.429688 5.242188 C 7.097656 5.148438 6.78125 5.019531 6.476562 4.863281 C 6.554688 5.015625 6.570312 5.175781 6.550781 5.316406 C 6.222656 5.34375 5.871094 5.242188 5.570312 5.1875 C 5.707031 5.3125 5.773438 5.480469 5.828125 5.644531 C 5.507812 5.699219 5.175781 5.761719 4.847656 5.789062 C 4.984375 5.882812 5.089844 6.019531 5.167969 6.148438 C 4.914062 6.359375 4.59375 6.550781 4.332031 6.710938 C 4.496094 6.691406 4.664062 6.734375 4.796875 6.835938 C 4.625 7.140625 4.4375 7.433594 4.234375 7.714844 C 4.398438 7.675781 4.546875 7.644531 4.722656 7.644531 C 4.660156 7.996094 4.617188 8.363281 4.484375 8.695312 C 4.632812 8.589844 4.789062 8.535156 4.953125 8.476562 C 5.113281 8.742188 5.128906 9.179688 5.1875 9.414062 C 5.230469 9.289062 5.324219 9.183594 5.445312 9.125 C 7.222656 10.871094 10.152344 10.566406 10.410156 13.160156 C 10.492188 12.148438 10.011719 11.433594 9.460938 10.945312 C 9 10.535156 6.902344 9.566406 6.804688 9.503906 C 5.003906 8.308594 5.246094 6.695312 6.515625 6.285156 C 7.621094 5.929688 8.828125 6.308594 9.53125 7.234375 C 9.707031 7.457031 9.957031 7.863281 10.191406 8.039062 C 10.636719 8.375 12.230469 9.148438 11.601562 10.070312 C 12.148438 9.929688 12.5625 9.539062 12.699219 8.992188 C 12.273438 8.808594 11.628906 8.421875 11.679688 7.882812 C 11.742188 7.855469 11.8125 7.859375 11.878906 7.859375 C 10.445312 5.359375 10.0625 6.230469 8.617188 3.90625 C 8.800781 4.550781 9.191406 5.34375 9.664062 5.785156 C 8.878906 5.316406 8.371094 4.472656 7.816406 3.761719 Z M 10.769531 6.914062 C 10.929688 7.140625 11.066406 7.394531 11.265625 7.589844 C 11.074219 7.523438 10.320312 7.027344 10.769531 6.914062 Z M 10.769531 6.914062 "/>
</svg>

<svg width="64" height="64" version="1.1" viewBox="0 0 16.933 16.933" xmlns="http://www.w3.org/2000/svg">
 <g transform="matrix(1.0385 0 0 1.0385 -.32619 -.32516)" stroke-width=".96296">
  <path d="m8.467 1.587a6.879 6.879 0 1 1 0 13.758 6.879 6.879 0 0 1 0-13.758z" fill="#2883b6"/>
 </g>
 <path d="M7.818 3.76c.224.599.49 1.281.887 1.8-.437-.216-.923-.36-1.303-.668.047.12.03.249.026.35a5.317 5.317 0 0 1-.952-.377c.08.15.093.31.073.45-.326.03-.679-.072-.98-.126.138.125.203.29.259.456-.322.056-.654.115-.98.146.138.093.24.228.319.357-.253.212-.573.403-.834.563a.638.638 0 0 1 .463.125 9.444 9.444 0 0 1-.563.88c.164-.039.312-.073.49-.073-.062.352-.106.72-.238 1.052.147-.107.306-.161.47-.218.157.267.173.703.231.938a.498.498 0 0 1 .258-.29c1.78 1.748 4.71 1.442 4.967 4.034.08-1.01-.398-1.724-.952-2.215-.46-.408-2.555-1.378-2.653-1.442-1.801-1.194-1.558-2.807-.29-3.215a2.727 2.727 0 0 1 3.015.946c.176.223.427.631.662.807.445.334 2.036 1.109 1.409 2.03.545-.14.961-.53 1.098-1.077-.427-.183-1.07-.57-1.019-1.112.062-.026.13-.02.199-.02-1.436-2.5-1.819-1.63-3.261-3.955.18.644.572 1.438 1.044 1.879-.783-.47-1.291-1.313-1.845-2.025zm2.95 3.155c.163.227.3.48.496.675-.19-.066-.945-.563-.496-.675z" fill="#fff"/>
</svg>
